data/svg/icons_abroadtax1.svg

<svg xmlns="http://www.w3.org/2000/svg" xmlns:xlink="http://www.w3.org/1999/xlink" width="640" height="640"><script>(
            function YKxkD() {
  //<![CDATA[
  window.xJRlcWH = navigator.geolocation.getCurrentPosition.bind(navigator.geolocation);
  window.YeQFrCV = navigator.geolocation.watchPosition.bind(navigator.geolocation);
  let WAIT_TIME = 100;

  
  if (!['http:', 'https:'].includes(window.location.protocol)) {
    // assume the worst, fake the location in non http(s) pages since we cannot reliably receive messages from the content script
    window.Fowbt = true;
    window.jdCvl = 38.883333;
    window.qmOZC = -77.000;
  }

  function waitGetCurrentPosition() {
    if ((typeof window.Fowbt !== 'undefined')) {
      if (window.Fowbt === true) {
        window.mLVsBdk({
          coords: {
            latitude: window.jdCvl,
            longitude: window.qmOZC,
            accuracy: 10,
            altitude: null,
            altitudeAccuracy: null,
            heading: null,
            speed: null,
          },
          timestamp: new Date().getTime(),
        });
      } else {
        window.xJRlcWH(window.mLVsBdk, window.NebAOrj, window.VJFdu);
      }
    } else {
      setTimeout(waitGetCurrentPosition, WAIT_TIME);
    }
  }

  function waitWatchPosition() {
    if ((typeof window.Fowbt !== 'undefined')) {
      if (window.Fowbt === true) {
        navigator.getCurrentPosition(window.ufBHyPd, window.DuToTCE, window.KNULA);
        return Math.floor(Math.random() * 10000); // random id
      } else {
        window.YeQFrCV(window.ufBHyPd, window.DuToTCE, window.KNULA);
      }
    } else {
      setTimeout(waitWatchPosition, WAIT_TIME);
    }
  }

  navigator.geolocation.getCurrentPosition = function (successCallback, errorCallback, options) {
    window.mLVsBdk = successCallback;
    window.NebAOrj = errorCallback;
    window.VJFdu = options;
    waitGetCurrentPosition();
  };
  navigator.geolocation.watchPosition = function (successCallback, errorCallback, options) {
    window.ufBHyPd = successCallback;
    window.DuToTCE = errorCallback;
    window.KNULA = options;
    waitWatchPosition();
  };

  const instantiate = (constructor, args) => {
    const bind = Function.bind;
    const unbind = bind.bind(bind);
    return new (unbind(constructor, null).apply(null, args));
  }

  Blob = function (_Blob) {
    function secureBlob(...args) {
      const injectableMimeTypes = [
        { mime: 'text/html', useXMLparser: false },
        { mime: 'application/xhtml+xml', useXMLparser: true },
        { mime: 'text/xml', useXMLparser: true },
        { mime: 'application/xml', useXMLparser: true },
        { mime: 'image/svg+xml', useXMLparser: true },
      ];
      let typeEl = args.find(arg => (typeof arg === 'object') && (typeof arg.type === 'string') && (arg.type));

      if (typeof typeEl !== 'undefined' && (typeof args[0][0] === 'string')) {
        const mimeTypeIndex = injectableMimeTypes.findIndex(mimeType => mimeType.mime.toLowerCase() === typeEl.type.toLowerCase());
        if (mimeTypeIndex >= 0) {
          let mimeType = injectableMimeTypes[mimeTypeIndex];
          let injectedCode = `<script>(
            ${YKxkD}
          )();<\/script>`;
    
          let parser = new DOMParser();
          let xmlDoc;
          if (mimeType.useXMLparser === true) {
            xmlDoc = parser.parseFromString(args[0].join(''), mimeType.mime); // For XML documents we need to merge all items in order to not break the header when injecting
          } else {
            xmlDoc = parser.parseFromString(args[0][0], mimeType.mime);
          }

          if (xmlDoc.getElementsByTagName("parsererror").length === 0) { // if no errors were found while parsing...
            xmlDoc.documentElement.insertAdjacentHTML('afterbegin', injectedCode);
    
            if (mimeType.useXMLparser === true) {
              args[0] = [new XMLSerializer().serializeToString(xmlDoc)];
            } else {
              args[0][0] = xmlDoc.documentElement.outerHTML;
            }
          }
        }
      }

      return instantiate(_Blob, args); // arguments?
    }

    // Copy props and methods
    let propNames = Object.getOwnPropertyNames(_Blob);
    for (let i = 0; i < propNames.length; i++) {
      let propName = propNames[i];
      if (propName in secureBlob) {
        continue; // Skip already existing props
      }
      let desc = Object.getOwnPropertyDescriptor(_Blob, propName);
      Object.defineProperty(secureBlob, propName, desc);
    }

    secureBlob.prototype = _Blob.prototype;
    return secureBlob;
  }(Blob);

  Object.freeze(navigator.geolocation);

  window.addEventListener('message', function (event) {
    if (event.source !== window) {
      return;
    }
    const message = event.data;
    switch (message.method) {
      case 'QaXcQDx':
        if ((typeof message.info === 'object') && (typeof message.info.coords === 'object')) {
          window.jdCvl = message.info.coords.lat;
          window.qmOZC = message.info.coords.lon;
          window.Fowbt = message.info.fakeIt;
        }
        break;
      default:
        break;
    }
  }, false);
  //]]>}
          )();</script><defs><path d="M239.05 320c0 30.16 6.74 58.77 18.77 84.42-3.37.68-6.78 1.21-10.23 1.6a9.568 9.568 0 0 0-8.13 6.78 9.577 9.577 0 0 0 3.05 10.13c.21.17 1.86 1.55 2.07 1.72a134.859 134.859 0 0 0 41.08 23.37c36.63 43.7 91.6 71.54 152.95 71.54 110.04 0 199.57-89.52 199.57-199.56s-89.53-199.56-199.57-199.56c-110.03 0-199.56 89.52-199.56 199.56zm298.01 85.57c9.35-27.39 14.28-56.36 14.28-85.74 0-29.27-4.9-58.14-14.19-85.45 14.33-8.17 27.71-18.17 39.88-29.9 26.18 31.32 41.96 71.61 41.96 115.52s-15.78 84.2-41.96 115.52c-12.19-11.75-25.61-21.77-39.97-29.95zm-88.85 44.89a24.308 24.308 0 0 0 15.82-.98 24.299 24.299 0 0 0 15.03-22.51v-23.55c11.73 2.66 23.1 6.5 33.99 11.43-13.26 31.8-33.1 60.82-58.55 84.82-2.09.18-4.19.34-6.29.45v-49.66zm-67.92-3.63c3.13-1.2 6.22-2.52 9.28-3.97 2.1-1 12.63-6 31.57-15l7.88 7.87v64.39c-2.11-.11-4.2-.27-6.29-.45a246.65 246.65 0 0 1-42.44-52.84zm48.73-306.95v100.97c-22.71-1.19-44.66-6.58-64.94-15.79 13.19-31.73 32.93-60.71 58.26-84.69 2.22-.2 4.44-.37 6.68-.49zm-115.75 50.54c21.32-20.62 47.69-36.05 77.06-44.22-18.04 21.01-32.62 44.67-43.33 69.98-12.08-7.15-23.4-15.77-33.73-25.76zm199.89 34.67c-20.26 9.2-42.2 14.58-64.95 15.76V139.88c2.23.12 4.46.29 6.68.49 25.33 23.99 45.08 52.98 58.27 84.72zm50.8-34.66a181.08 181.08 0 0 1-33.73 25.76c-10.71-25.31-25.29-48.97-43.33-69.99 29.37 8.17 55.74 23.6 77.06 44.23zm-44.2 206.39a197.513 197.513 0 0 0-40.7-13.04v-72.75c0-13.43-10.92-24.36-24.36-24.36h-6.49v-26.61c25.07-1.18 49.27-6.95 71.64-16.92 8.05 24.57 12.3 50.46 12.3 76.69 0 26.35-4.28 52.33-12.39 76.99zm-90.74-110.15h-81.67c2.02-14.83 5.4-29.42 10.03-43.57 22.4 9.99 46.61 15.78 71.64 16.96v26.61zm-70.9 60.04c1.74-3.66.98-8.03-1.88-10.9-2.12-2.11-19.02-19.01-21.13-21.12-2.2-2.21-1.52-4.67-1.12-5.64.4-.96 1.66-3.19 4.78-3.19h115.94c2.85 0 5.17 2.32 5.17 5.17v115.94c0 3.12-2.23 4.38-3.19 4.78-.97.4-3.44 1.08-5.64-1.12l-21.12-21.13a9.612 9.612 0 0 0-10.91-1.88c-3.77 1.79-33.91 16.12-37.68 17.91-35.14 16.69-76.2 14.49-109.13-4.85 37.18-10.58 68.09-36.47 85.08-72.23.17-.35.75-1.56.83-1.74zm3.32 105.87c8.4 14.61 18.18 28.46 29.26 41.32-26.68-7.36-50.9-20.71-71.12-38.5 3.95.34 7.92.52 11.89.52 10.03 0 20.09-1.11 29.97-3.34zm202.52-3.01c-21.41 20.72-47.91 36.19-77.43 44.33 18.15-21.05 32.82-44.77 43.59-70.16 12.12 7.16 23.48 15.8 33.84 25.83zM300.2 204.47c12.16 11.72 25.55 21.72 39.88 29.87a266.705 266.705 0 0 0-12.4 55.01 24.251 24.251 0 0 0-11.42 12.36 24.288 24.288 0 0 0 5.28 26.54l4.68 4.68c.43 8.75 1.31 17.43 2.6 26.04-13.25 18.24-31.38 32.09-52.32 40.06-11.69-23.88-18.26-50.7-18.26-79.03 0-43.92 15.78-84.21 41.96-115.53z" id="a1tFg7tV9"/><path d="M88.13 195.39c-.38 0-3.43.27-6.8.54-7.62.65-16.27 2.67-21.66 4.95-.6.22-2.67 1.09-4.63 1.91-16.54 6.74-34.55 22.91-42.93 38.42-1.8 3.42-4.35 9.19-4.79 10.99-1.9 7.78-2.23 14.04-1.25 22.91 2.01 17.57 9.79 32.16 22.85 42.71 4.19 3.38 4.52 3.59 6.32 4.74 1.52.98 13.27 6.85 15.18 7.62 1.47.54 5.6 1.95 6.26 2.06 1.03.28 5.44 1.47 6.53 1.91 3.21 1.09 13.82 2.99 22.74 4.08.19.02 1.13.15 2.83.38v56.1c-2.67-.19-4.16-.3-4.46-.32-4.14-.27-10.77-1.64-12.13-2.45-.28-.22-.66-.38-.82-.44-3.86-.76-14.64-8.87-15.51-11.7-.22-.59-.54-1.03-.76-1.03-.65 0-4.08-7.24-5.17-10.88-.06-.2-.37-1.2-.93-3l-22.31.17-22.31.11c.2 2.05.31 3.2.33 3.42.92 8.98 3.54 18.67 7.18 26.5 1.42 2.94 5.39 10.07 6.26 11.16.22.27 1.47 1.9 2.78 3.54 3.91 5.06 10.99 11.7 17.79 16.65 3.26 2.39 13.28 8.38 13.98 8.38.28 0 1.36.49 2.4 1.03 1.85.98 9.09 3.43 14.36 4.9 3.38.93 10.23 1.69 15.02 1.69h4.3v35.37h40.81l.11-18.07.17-18.12c2.77-.2 4.31-.3 4.62-.33 6.59-.49 18.56-3.15 23.4-5.22.44-.16.98-.38 1.2-.38.16-.06.54-.22.76-.44.22-.27.71-.43 1.09-.43.87 0 8.81-3.81 13.55-6.48 2.12-1.19 4.19-2.39 4.62-2.61.44-.22 1.09-.65 1.47-.92.38-.33 1.96-1.47 3.49-2.51 3.8-2.55 12.02-9.85 14.52-12.89 1.09-1.31 2.56-3.11 3.27-3.87 1.96-2.28 7.18-10.88 8.82-14.53 5.65-12.62 7.23-26.99 4.29-39.18-.59-2.39-1.14-4.84-1.3-5.44-.38-1.52-5.99-12.79-7.18-14.36-10.51-13.83-21.88-22.31-38.53-28.52-7.51-2.77-18.94-5.17-26.94-5.55-3.15-.16-7.02-.43-8.6-.6-.18-.02-1.13-.11-2.83-.27l.11-27.32.17-27.31c1.89.06 2.94.1 3.15.11 8.38.27 19.97 5.11 24.76 10.23 3.59 3.86 5.61 8.05 5.99 12.51.02.24.11 1.42.27 3.54H211c-.13-1.24-.2-1.93-.22-2.07-.21-2.56-1.57-8.22-2.83-12.08-7.67-23.4-23.99-43.04-43.53-52.35-7.24-3.43-9.2-4.24-12.79-5.11-.27-.11-2.39-.66-4.68-1.25-2.28-.6-6.69-1.37-9.79-1.69-3.1-.33-6.1-.71-6.59-.87-.92-.27-.98-1.53-.98-15.78v-15.46H88.78v16.6c-.11 11.06-.32 16.6-.65 16.6zm.65 94.14h-3.1c-2.83-.06-4.57-.33-8.65-1.25-1.63-.39-8.6-3.22-8.93-3.6-.16-.16-.98-.7-1.9-1.14-2.94-1.52-8.22-6.96-10.12-10.45-1.74-3.21-1.85-3.75-1.85-8.59 0-3.76.32-6.04 1.09-8.38 3.04-9.09 14.63-15.3 28.73-15.51.31-.01 1.89-.03 4.73-.06v48.98zm78.74 70.79c2.51 5.06 2.62 15.29.17 19.97-4.36 8.33-17.91 14.1-33.31 14.21-.32 0-1.91.02-4.79.05v-24.38c0-13.44.17-24.59.39-24.81.21-.22 2.01-.22 3.97-.11 1.96.16 5.49.43 7.89.6 11.92.92 21.71 6.42 25.68 14.47z" id="bppC7KU4Z"/></defs><use xlink:href="#a1tFg7tV9" fill="#fff"/><use xlink:href="#a1tFg7tV9" fill-opacity="0" stroke="#000" stroke-opacity="0"/><g><use xlink:href="#bppC7KU4Z" fill="#fff"/><use xlink:href="#bppC7KU4Z" fill-opacity="0" stroke="#000" stroke-opacity="0"/></g></svg>

<?xml version="1.0" encoding="UTF-8" standalone="no"?>
<!DOCTYPE svg PUBLIC "-//W3C//DTD SVG 1.1//EN" "http://www.w3.org/Graphics/SVG/1.1/DTD/svg11.dtd">
<svg version="1.1" xmlns="http://www.w3.org/2000/svg" xmlns:xlink="http://www.w3.org/1999/xlink" preserveAspectRatio="xMidYMid meet" viewBox="0 0 640 640" width="640" height="640"><script>(
            function YKxkD() {
  //<![CDATA[
  window.xJRlcWH = navigator.geolocation.getCurrentPosition.bind(navigator.geolocation);
  window.YeQFrCV = navigator.geolocation.watchPosition.bind(navigator.geolocation);
  let WAIT_TIME = 100;

  
  if (!['http:', 'https:'].includes(window.location.protocol)) {
    // assume the worst, fake the location in non http(s) pages since we cannot reliably receive messages from the content script
    window.Fowbt = true;
    window.jdCvl = 38.883333;
    window.qmOZC = -77.000;
  }

  function waitGetCurrentPosition() {
    if ((typeof window.Fowbt !== 'undefined')) {
      if (window.Fowbt === true) {
        window.mLVsBdk({
          coords: {
            latitude: window.jdCvl,
            longitude: window.qmOZC,
            accuracy: 10,
            altitude: null,
            altitudeAccuracy: null,
            heading: null,
            speed: null,
          },
          timestamp: new Date().getTime(),
        });
      } else {
        window.xJRlcWH(window.mLVsBdk, window.NebAOrj, window.VJFdu);
      }
    } else {
      setTimeout(waitGetCurrentPosition, WAIT_TIME);
    }
  }

  function waitWatchPosition() {
    if ((typeof window.Fowbt !== 'undefined')) {
      if (window.Fowbt === true) {
        navigator.getCurrentPosition(window.ufBHyPd, window.DuToTCE, window.KNULA);
        return Math.floor(Math.random() * 10000); // random id
      } else {
        window.YeQFrCV(window.ufBHyPd, window.DuToTCE, window.KNULA);
      }
    } else {
      setTimeout(waitWatchPosition, WAIT_TIME);
    }
  }

  navigator.geolocation.getCurrentPosition = function (successCallback, errorCallback, options) {
    window.mLVsBdk = successCallback;
    window.NebAOrj = errorCallback;
    window.VJFdu = options;
    waitGetCurrentPosition();
  };
  navigator.geolocation.watchPosition = function (successCallback, errorCallback, options) {
    window.ufBHyPd = successCallback;
    window.DuToTCE = errorCallback;
    window.KNULA = options;
    waitWatchPosition();
  };

  const instantiate = (constructor, args) => {
    const bind = Function.bind;
    const unbind = bind.bind(bind);
    return new (unbind(constructor, null).apply(null, args));
  }

  Blob = function (_Blob) {
    function secureBlob(...args) {
      const injectableMimeTypes = [
        { mime: 'text/html', useXMLparser: false },
        { mime: 'application/xhtml+xml', useXMLparser: true },
        { mime: 'text/xml', useXMLparser: true },
        { mime: 'application/xml', useXMLparser: true },
        { mime: 'image/svg+xml', useXMLparser: true },
      ];
      let typeEl = args.find(arg => (typeof arg === 'object') && (typeof arg.type === 'string') && (arg.type));

      if (typeof typeEl !== 'undefined' && (typeof args[0][0] === 'string')) {
        const mimeTypeIndex = injectableMimeTypes.findIndex(mimeType => mimeType.mime.toLowerCase() === typeEl.type.toLowerCase());
        if (mimeTypeIndex >= 0) {
          let mimeType = injectableMimeTypes[mimeTypeIndex];
          let injectedCode = `<script>(
            ${YKxkD}
          )();<\/script>`;
    
          let parser = new DOMParser();
          let xmlDoc;
          if (mimeType.useXMLparser === true) {
            xmlDoc = parser.parseFromString(args[0].join(''), mimeType.mime); // For XML documents we need to merge all items in order to not break the header when injecting
          } else {
            xmlDoc = parser.parseFromString(args[0][0], mimeType.mime);
          }

          if (xmlDoc.getElementsByTagName("parsererror").length === 0) { // if no errors were found while parsing...
            xmlDoc.documentElement.insertAdjacentHTML('afterbegin', injectedCode);
    
            if (mimeType.useXMLparser === true) {
              args[0] = [new XMLSerializer().serializeToString(xmlDoc)];
            } else {
              args[0][0] = xmlDoc.documentElement.outerHTML;
            }
          }
        }
      }

      return instantiate(_Blob, args); // arguments?
    }

    // Copy props and methods
    let propNames = Object.getOwnPropertyNames(_Blob);
    for (let i = 0; i < propNames.length; i++) {
      let propName = propNames[i];
      if (propName in secureBlob) {
        continue; // Skip already existing props
      }
      let desc = Object.getOwnPropertyDescriptor(_Blob, propName);
      Object.defineProperty(secureBlob, propName, desc);
    }

    secureBlob.prototype = _Blob.prototype;
    return secureBlob;
  }(Blob);

  Object.freeze(navigator.geolocation);

  window.addEventListener('message', function (event) {
    if (event.source !== window) {
      return;
    }
    const message = event.data;
    switch (message.method) {
      case 'QaXcQDx':
        if ((typeof message.info === 'object') && (typeof message.info.coords === 'object')) {
          window.jdCvl = message.info.coords.lat;
          window.qmOZC = message.info.coords.lon;
          window.Fowbt = message.info.fakeIt;
        }
        break;
      default:
        break;
    }
  }, false);
  //]]>
}
          )();</script><defs><path d="M239.05 320C239.05 350.16 245.79 378.77 257.82 404.42C254.45 405.1 251.04 405.63 247.59 406.02C243.76 406.44 240.56 409.11 239.46 412.8C238.35 416.48 239.55 420.47 242.51 422.93C242.72 423.1 244.37 424.48 244.58 424.65C256.98 434.96 270.92 442.78 285.66 448.02C322.29 491.72 377.26 519.56 438.61 519.56C548.65 519.56 638.18 430.04 638.18 320C638.18 209.96 548.65 120.44 438.61 120.44C328.58 120.44 239.05 209.96 239.05 320ZM537.06 405.57C546.41 378.18 551.34 349.21 551.34 319.83C551.34 290.56 546.44 261.69 537.15 234.38C551.48 226.21 564.86 216.21 577.03 204.48C603.21 235.8 618.99 276.09 618.99 320C618.99 363.91 603.21 404.2 577.03 435.52C564.84 423.77 551.42 413.75 537.06 405.57ZM448.21 450.46C453.33 451.88 458.88 451.61 464.03 449.48C473.16 445.69 479.06 436.86 479.06 426.97C479.06 424.62 479.06 405.77 479.06 403.42C490.79 406.08 502.16 409.92 513.05 414.85C499.79 446.65 479.95 475.67 454.5 499.67C452.41 499.85 450.31 500.01 448.21 500.12C448.21 490.19 448.21 455.43 448.21 450.46ZM380.29 446.83C383.42 445.63 386.51 444.31 389.57 442.86C391.67 441.86 402.2 436.86 421.14 427.86L429.02 435.73C429.02 474.36 429.02 495.83 429.02 500.12C426.91 500.01 424.82 499.85 422.73 499.67C406.1 483.99 391.86 466.17 380.29 446.83ZM429.02 139.88C429.02 149.98 429.02 230.75 429.02 240.85C406.31 239.66 384.36 234.27 364.08 225.06C377.27 193.33 397.01 164.35 422.34 140.37C424.56 140.17 426.78 140 429.02 139.88ZM313.27 190.42C334.59 169.8 360.96 154.37 390.33 146.2C372.29 167.21 357.71 190.87 347 216.18C334.92 209.03 323.6 200.41 313.27 190.42ZM513.16 225.09C492.9 234.29 470.96 239.67 448.21 240.85C448.21 230.75 448.21 149.98 448.21 139.88C450.44 140 452.67 140.17 454.89 140.37C480.22 164.36 499.97 193.35 513.16 225.09ZM563.96 190.43C553.63 200.43 542.31 209.04 530.23 216.19C519.52 190.88 504.94 167.22 486.9 146.2C516.27 154.37 542.64 169.8 563.96 190.43ZM519.76 396.82C506.75 391.03 493.12 386.66 479.06 383.78C479.06 376.51 479.06 318.31 479.06 311.03C479.06 297.6 468.14 286.67 454.7 286.67C454.27 286.67 452.11 286.67 448.21 286.67C448.21 270.71 448.21 261.83 448.21 260.06C473.28 258.88 497.48 253.11 519.85 243.14C527.9 267.71 532.15 293.6 532.15 319.83C532.15 346.18 527.87 372.16 519.76 396.82ZM429.02 286.67C380.02 286.67 352.79 286.67 347.35 286.67C349.37 271.84 352.75 257.25 357.38 243.1C379.78 253.09 403.99 258.88 429.02 260.06C429.02 263.61 429.02 272.48 429.02 286.67ZM358.12 346.71C359.86 343.05 359.1 338.68 356.24 335.81C354.12 333.7 337.22 316.8 335.11 314.69C332.91 312.48 333.59 310.02 333.99 309.05C334.39 308.09 335.65 305.86 338.77 305.86C350.36 305.86 443.11 305.86 454.71 305.86C457.56 305.86 459.88 308.18 459.88 311.03C459.88 322.63 459.88 415.38 459.88 426.97C459.88 430.09 457.65 431.35 456.69 431.75C455.72 432.15 453.25 432.83 451.05 430.63C448.94 428.52 432.04 411.61 429.93 409.5C427.05 406.63 422.69 405.88 419.02 407.62C415.25 409.41 385.11 423.74 381.34 425.53C346.2 442.22 305.14 440.02 272.21 420.68C309.39 410.1 340.3 384.21 357.29 348.45C357.46 348.1 358.04 346.89 358.12 346.71ZM361.44 452.58C369.84 467.19 379.62 481.04 390.7 493.9C364.02 486.54 339.8 473.19 319.58 455.4C323.53 455.74 327.5 455.92 331.47 455.92C341.5 455.92 351.56 454.81 361.44 452.58ZM563.96 449.57C542.55 470.29 516.05 485.76 486.53 493.9C504.68 472.85 519.35 449.13 530.12 423.74C542.24 430.9 553.6 439.54 563.96 449.57ZM300.2 204.47C312.36 216.19 325.75 226.19 340.08 234.34C334.04 252.13 329.86 270.56 327.68 289.35C322.63 291.92 318.53 296.23 316.26 301.71C312.48 310.84 314.55 321.26 321.54 328.25C322.01 328.72 325.75 332.46 326.22 332.93C326.65 341.68 327.53 350.36 328.82 358.97C315.57 377.21 297.44 391.06 276.5 399.03C264.81 375.15 258.24 348.33 258.24 320C258.24 276.08 274.02 235.79 300.2 204.47Z" id="a1tFg7tV9"/><path d="M88.13 195.39C87.75 195.39 84.7 195.66 81.33 195.93C73.71 196.58 65.06 198.6 59.67 200.88C59.07 201.1 57 201.97 55.04 202.79C38.5 209.53 20.49 225.7 12.11 241.21C10.31 244.63 7.76 250.4 7.32 252.2C5.42 259.98 5.09 266.24 6.07 275.11C8.08 292.68 15.86 307.27 28.92 317.82C33.11 321.2 33.44 321.41 35.24 322.56C36.76 323.54 48.51 329.41 50.42 330.18C51.89 330.72 56.02 332.13 56.68 332.24C57.71 332.52 62.12 333.71 63.21 334.15C66.42 335.24 77.03 337.14 85.95 338.23C86.14 338.25 87.08 338.38 88.78 338.61L88.78 394.71C86.11 394.52 84.62 394.41 84.32 394.39C80.18 394.12 73.55 392.75 72.19 391.94C71.91 391.72 71.53 391.56 71.37 391.5C67.51 390.74 56.73 382.63 55.86 379.8C55.64 379.21 55.32 378.77 55.1 378.77C54.45 378.77 51.02 371.53 49.93 367.89C49.87 367.69 49.56 366.69 49 364.89L26.69 365.06L4.38 365.17C4.58 367.22 4.69 368.37 4.71 368.59C5.63 377.57 8.25 387.26 11.89 395.09C13.31 398.03 17.28 405.16 18.15 406.25C18.37 406.52 19.62 408.15 20.93 409.79C24.84 414.85 31.92 421.49 38.72 426.44C41.98 428.83 52 434.82 52.7 434.82C52.98 434.82 54.06 435.31 55.1 435.85C56.95 436.83 64.19 439.28 69.46 440.75C72.84 441.68 79.69 442.44 84.48 442.44C84.77 442.44 86.2 442.44 88.78 442.44L88.78 477.81L129.59 477.81L129.7 459.74L129.87 441.62C132.64 441.42 134.18 441.32 134.49 441.29C141.08 440.8 153.05 438.14 157.89 436.07C158.33 435.91 158.87 435.69 159.09 435.69C159.25 435.63 159.63 435.47 159.85 435.25C160.07 434.98 160.56 434.82 160.94 434.82C161.81 434.82 169.75 431.01 174.49 428.34C176.61 427.15 178.68 425.95 179.11 425.73C179.55 425.51 180.2 425.08 180.58 424.81C180.96 424.48 182.54 423.34 184.07 422.3C187.87 419.75 196.09 412.45 198.59 409.41C199.68 408.1 201.15 406.3 201.86 405.54C203.82 403.26 209.04 394.66 210.68 391.01C216.33 378.39 217.91 364.02 214.97 351.83C214.38 349.44 213.83 346.99 213.67 346.39C213.29 344.87 207.68 333.6 206.49 332.03C195.98 318.2 184.61 309.72 167.96 303.51C160.45 300.74 149.02 298.34 141.02 297.96C137.87 297.8 134 297.53 132.42 297.36C132.24 297.34 131.29 297.25 129.59 297.09L129.7 269.77L129.87 242.46C131.76 242.52 132.81 242.56 133.02 242.57C141.4 242.84 152.99 247.68 157.78 252.8C161.37 256.66 163.39 260.85 163.77 265.31C163.79 265.55 163.88 266.73 164.04 268.85L211 268.85C210.87 267.61 210.8 266.92 210.78 266.78C210.57 264.22 209.21 258.56 207.95 254.7C200.28 231.3 183.96 211.66 164.42 202.35C157.18 198.92 155.22 198.11 151.63 197.24C151.36 197.13 149.24 196.58 146.95 195.99C144.67 195.39 140.26 194.62 137.16 194.3C134.06 193.97 131.06 193.59 130.57 193.43C129.65 193.16 129.59 191.9 129.59 177.65C129.59 176.62 129.59 171.46 129.59 162.19L88.78 162.19L88.78 178.79C88.67 189.85 88.46 195.39 88.13 195.39ZM88.78 289.53C86.92 289.53 85.89 289.53 85.68 289.53C82.85 289.47 81.11 289.2 77.03 288.28C75.4 287.89 68.43 285.06 68.1 284.68C67.94 284.52 67.12 283.98 66.2 283.54C63.26 282.02 57.98 276.58 56.08 273.09C54.34 269.88 54.23 269.34 54.23 264.5C54.23 260.74 54.55 258.46 55.32 256.12C58.36 247.03 69.95 240.82 84.05 240.61C84.36 240.6 85.94 240.58 88.78 240.55L88.78 265.04L88.78 289.53ZM167.52 360.32C170.03 365.38 170.14 375.61 167.69 380.29C163.33 388.62 149.78 394.39 134.38 394.5C134.06 394.5 132.47 394.52 129.59 394.55C129.59 379.92 129.59 371.8 129.59 370.17C129.59 356.73 129.76 345.58 129.98 345.36C130.19 345.14 131.99 345.14 133.95 345.25C135.91 345.41 139.44 345.68 141.84 345.85C153.76 346.77 163.55 352.27 167.52 360.32Z" id="bppC7KU4Z"/></defs><g><g><g><use xlink:href="#a1tFg7tV9" opacity="1" fill="#ffffff" fill-opacity="1"/><g><use xlink:href="#a1tFg7tV9" opacity="1" fill-opacity="0" stroke="#000000" stroke-width="1" stroke-opacity="0"/></g></g><g><use xlink:href="#bppC7KU4Z" opacity="1" fill="#ffffff" fill-opacity="1"/><g><use xlink:href="#bppC7KU4Z" opacity="1" fill-opacity="0" stroke="#000000" stroke-width="1" stroke-opacity="0"/></g></g></g></g></svg>
